X:1
T:Partition sans titre
C:Compositeur / Arrangeur
L:1/8
M:4/4
I:linebreak $
K:D
V:1 treble nm="Violon" snm="Vln."
V:1
"D" f2 f>f f f2 A |"G" Bcde dcBA | g2 g>g gggA | Bcde dcBA |"D" f2 f>f f f2 A |"G" BcdB"A" e2 B2 | %6
 ed cB/c/ BA f>g |1"D" feBc d2 d2 :|2"D" feBc d2 cd |:"A" e/e/c/e/ ac e2 e/A/c/d/ | %10
 cB/B/"G" B/A/B/c/ BAcd |"A" e/e/c/e/ ac e2 e/A/c/d/ |1 cB/B/ Be A2 cd :|2 %13
 cB/B/ Be A2"G" B/c/d/e/ |] %14
